X:1085
M:C
L:1/8
Q:1/4=104
K:D
  d3c {c}B2     (dc)|{f}e2 {d}c2         (d2      e)f|   B2(cd    e2)  d2  |{d}c3  B A2 A2|
  d3c {c}B2     (cd)|{f}e2 {d}c2          d2{edcd}e`f|   B2 e2   (d<c)(B<A)|{c}d6       A2|
  A3c    B2{cBAB}e>d|  (dc)  (BA)         d3        f|   e2 f2 {a}g2  (gf) |{f}e6       zA|
  d3c {c}B2     (cd)|{f}e2 {d}c2          d3        f|\
  B3e    d2     Tc2 |  (d3     e/f/) ({a}Hg2)     f2 |{f}e2 d2    fe   dc  |   d6        |]

